X: 641
T: Just as I was in the morning
N: The "I" in the title is actually "J"
R: jig
B: Robert Bremner "A Collection of Scots Reels or Country Dances" 1757 p.64 #1
S: http://imslp.org/wiki/A_Collection_of_Scots_Reels_or_Country_Dances_(Bremner,_Robert)
Z: 2013 John Chambers <jc:trillian.mit.edu>
M: 6/8
L: 1/8
K: D
% - - - - - - - - - - - - - - - - - - - - - - - - -
V: 1
f/e/ |\
d2D (F/G/A)F | EFE (Tc>Bc) |\
d2D (F/G/A)F | A3 d2 :|\
|: A |\
dfa afd | cde ecA |
ded fdg | Tf3 a2b |\
afa geg | fdf ecA |\
{Bc}d2D (F/G/A)F A3 d2 :|
% - - - - - - - - - - - - - - - - - - - - - - - - -
V: 2 clef=bass middle=d
z | d3 d3 | e3 e3 | d3 d3 | A3 D2 :| |: z | d3 d3 |
A3 A3 | d3 d3 | d3 d3 | f3 e3 | d3 A3 | d3 d3 | A3 D2 :|
% - - - - - - - - - - - - - - - - - - - - - - - - -

%%sep 1 1 500
%%sep 1 1 500
